X: 18488
T: Hyndland Fox, The
R: slip jig
M: 9/8
K: Edorian
E2e dBG ABA|G3 BAG AGF|E2e dBG ABd|e3 edB AGF|
E2e dBG ABA|G3 BAG AGF|EFG FGA GAB|ABd dBd e3||
Gdg edB ABA|G3 BAG ABA|G2g edB deg|a3 ged edB|
G2g edB ABA|G3 BAG AGF|EFG FGA GAB|ABd dBd e3||

